!!!id: 17xx:2231
!!!COM: Anonim
!!!OTL: Missa – Kyrie
!!!PDT:
!!!SMS-siglum: PL-Kk
!!!SMS-shelfmark: Kk.I.31
!!!NIFC-rismID: 1001156550
!!!URL-scan: http://repozytorium.nifc.pl/skany/pl-kk-nut--i-31
!!!ONB-nifc: UWAGA: części Mszy: 1. Kyrie, 2. Et in terra, 3. Patrem, 4. Sanctus, 5. Agnus Dei
!!!SMS-variant:
!!!SMS-altvar:
**kern	**text	**kern	**text	**kern	**text	**kern	**text	**kern	**text
*part5	*part5	*part4	*part4	*part3	*part3	*part2	*part2	*part1	*part1
*staff5	*staff5	*staff4	*staff4	*staff3	*staff3	*staff2	*staff2	*staff1	*staff1
*I"Baſso Ripieno	*	*I"Baſso.	*	*I"Tenore	*	*I"Alto	*	*I"Canto	*
*I'B rip	*	*I'B	*	*I'T	*	*I'A	*	*I'S	*
*clefF4	*	*clefF4	*	*clefC4	*	*clefC3	*	*clefC1	*
*k[]	*	*k[]	*	*k[]	*	*k[]	*	*k[]	*
*M2/1	*	*M2/1	*	*M2/1	*	*M2/1	*	*M2/1	*
*met(C)	*	*met(C)	*	*met(C)	*	*met(C)	*	*met(C)	*
=1	=1	=1	=1	=1	=1	=1	=1	=1	=1
!LO:TX:t=P:problem:kreska pseudotaktowa	!	!	!	!	!	!	!	!	!
*all\right	*	*all\right	*	*all\right	*	*all\right	*	*all\right	*
!	!	!LO:TX:t=P:problem:kreska pseudotaktowa	!	!	!	!	!	!	!
!	!	!LO:TX:a:t=1.	!	!	!	!	!	!	!
!LO:TX:t=P:problem:kreska pseudotaktowa	!	!	!	!	!	!	!	!LO:TX:t=P:problem:kreska pseudotaktowa	!
1r	.	1r	.	2r	.	2c/	Ky-	1r	.
*	*	*	*	*	*	*2\right	*	*	*
!	!	!	!	!	!	!LO:TX:t=P:problem:kreska pseudotaktowa	!	!	!
.	.	.	.	4r	.	2d\	-ri-	.	.
!	!	!	!	!LO:TX:t=P:problem:nuta przekreślona	!	!	!	!	!
.	.	.	.	2G/	Ky-	.	.	.	.
2C/	Ky-	2C/	Ky-	.	.	2e\	-e	4r	.
.	.	.	.	2A/	-ri-	.	.	4cc\	Chri-
!LO:TX:t=P:problem:kreska pseudotaktowa	!	!LO:TX:t=P:problem:kreska pseudotaktowa	!	!	!	!LO:TX:t=P:problem:kreska pseudotaktowa	!	!	!
2D/	-ri-	2D/	-ri-	.	.	2f\	e-	8a\L	.
.	.	.	.	.	.	.	.	16b\L	.
.	.	.	.	.	.	.	.	16cc\J	.
*	*	*	*	*2\right	*	*	*	*	*
!	!	!	!	!LO:TX:t=P:problem:nuta przekreślona	!	!	!	!	!
.	.	.	.	2B\	-e	.	.	8dd\	.
!	!	!	!	!	!	!	!	!LO:TX:t=P:problem:kreska pseudotaktowa	!
.	.	.	.	.	.	.	.	8cc\J	.
=2-	=2-	=2-	=2-	=2-	=2-	=2-	=2-	=2-	=2-
*2\right	*	*2\right	*	*	*	*	*	*	*
2E\	-e	2E\	-e	.	.	2g\	-ley-	4b\	ſte
.	.	.	.	2c\	e-	.	.	4ee\	e-
!LO:TX:t=P:problem:kreska pseudotaktowa	!	!LO:TX:t=P:problem:kreska pseudotaktowa	!	!	!	!LO:TX:t=P:problem:kreska pseudotaktowa	!	!	!
2F\	e-	2F\	e-	.	.	2a\	-ſon	4cc\	.
!	!	!	!	!LO:TX:t=P:problem:nuta przekreślona	!	!	!	!	!
.	.	.	.	2d\	-ley-	.	.	8b\L	.
!	!	!	!	!	!	!	!	!LO:TX:t=P:problem:kreska pseudotaktowa	!
.	.	.	.	.	.	.	.	8a\J	.
*	*	*	*	*	*	*	*	*2\right	*
2G\	-lei-	2G\	-ley-	.	.	2r	.	2b\	.
.	.	.	.	4e\	-ſon	.	.	.	.
!LO:TX:t=P:problem:kreska pseudotaktowa	!	!LO:TX:t=P:problem:kreska pseudotaktowa	!	!LO:TX:t=P:problem:kreska pseudotaktowa	!	!LO:TX:t=P:problem:kreska pseudotaktowa	!	!	!
2A\	-son	2A\	-ſon.	[<2e\	Ky-	2a\	Ky-	8cc\L	.
.	.	.	.	.	.	.	.	8a\J	.
.	.	.	.	.	.	.	.	2cc\	-ley-
=3-	=3-	=3-	=3-	=3-	=3-	=3-	=3-	=3-	=3-
0r	.	0r	.	2e\]	.	2g\	-ri-	.	.
.	.	.	.	.	.	.	.	4b\	-ſon
!	!	!	!	!LO:TX:t=P:problem:kreska pseudotaktowa	!	!LO:TX:t=P:problem:kreska pseudotaktowa	!	!	!
.	.	.	.	2d\	-ri-	2f\	-e	8.ee\L	Chri-
.	.	.	.	.	.	.	.	16dd\K	.
.	.	.	.	.	.	.	.	8.a\	.
!	!	!	!	!	!	!	!	!LO:TX:t=P:problem:kreska pseudotaktowa	!
.	.	.	.	.	.	.	.	16b\Jk	.
.	.	.	.	2c\	-e	2e\	e-	4cc\	-ſte
.	.	.	.	.	.	.	.	4.a\	e-
!	!	!	!	!LO:TX:t=P:problem:kreska pseudotaktowa	!	!LO:TX:t=P:problem:kreska pseudotaktowa	!	!	!
.	.	.	.	2B\	e-	2d\	.	.	.
.	.	.	.	.	.	.	.	8g/	.
.	.	.	.	.	.	.	.	2g/	ley-
=4-	=4-	=4-	=4-	=4-	=4-	=4-	=4-	=4-	=4-
!LO:TX:t=P:problem:kreska pseudotaktowa	!	!LO:TX:t=P:problem:kreska pseudotaktowa	!	!	!	!	!	!	!
1r	.	1r	.	2A/	-ley-	2c/	-ley-	.	.
.	.	.	.	.	.	.	.	4f#X/	.
!	!	!	!	!LO:TX:t=P:problem:kreska pseudotaktowa	!	!	!	!LO:TX:t=P:problem:kreska pseudotaktowa	!
.	.	.	.	[<2G/	-ſon	4B/	.	2g,</	-ſon
!	!	!	!	!	!	!LO:TX:t=P:problem:kreska pseudotaktowa	!	!	!
.	.	.	.	.	.	4d\	-ſon	.	.
!	!	!	!	!LO:N:xstem:cue	!	!	!	!	!
2r	.	2r	.	4G/]	.	8B\	Chri-	2g/	Ky-
.	.	.	.	.	.	(16c\	-ſte	.	.
.	.	.	.	.	.	16d\)	.	.	.
.	.	.	.	4c\	Chri-	8e\	.	.	.
.	.	.	.	.	.	8d\	.	.	.
!LO:TX:t=P:problem:kreska pseudotaktowa	!	!LO:TX:t=P:problem:kreska pseudotaktowa	!	!	!	!	!	!LO:TX:t=P:problem:kreska pseudotaktowa	!
2A\	Chri-	2A\	Ky-	8A\L	-ſte	4c/	.	2a\	-ri-
.	.	.	.	16B\L	.	.	.	.	.
.	.	.	.	16c\JJ	.	.	.	.	.
.	.	.	.	8d\L	.	8B/	.	.	.
!	!	!	!	!LO:TX:t=P:problem:kreska pseudotaktowa	!	!LO:TX:t=P:problem:kreska pseudotaktowa	!	!	!
.	.	.	.	8c\J	.	8A/	.	.	.
=5-	=5-	=5-	=5-	=5-	=5-	=5-	=5-	=5-	=5-
2G\	.	2G\	-ri-	4B\	e-	2d\	[e]-	2b\	-e
.	.	.	.	8A\L	.	.	.	.	.
.	.	.	.	8G\J	.	.	.	.	.
!LO:TX:t=P:problem:kreska pseudotaktowa	!	!LO:TX:t=P:problem:kreska pseudotaktowa	!	!	!	!LO:TX:t=P:problem:kreska pseudotaktowa	!	!	!
2F\	-ste	2F\	-e	2A/	.	2f\	.	1cc\	e-
2E\	[e]-	2E\	e-	4G/	.	2g\	.	.	.
.	.	.	.	2c\	.	.	.	.	.
!LO:TX:t=P:problem:kreska pseudotaktowa	!	!LO:TX:t=P:problem:kreska pseudotaktowa	!	!	!	!LO:TX:t=P:problem:kreska pseudotaktowa	!	!LO:TX:t=P:problem:kreska pseudotaktowa	!
2D\	.	2D/	-ley-	.	.	2f\	-ley-	2dd\	-ley-
!	!	!	!	!LO:TX:t=P:problem:kreska pseudotaktowa	!	!	!	!	!
.	.	.	.	4B\	-ley-	.	.	.	.
!	!	!	!	!	!	!LO:LB:g=original	!	!	!
=6-	=6-	=6-	=6-	=6-	=6-	=6-	=6-	=6-	=6-
2.C/	.	2.C/	-ſon	2c\	-ſon	4e\	.	2ee\	-ſon
.	.	.	.	.	.	4g\	-son	.	.
!	!	!	!	!LO:LB:g=original	!	!	!	!LO:TX:t=P:problem:kreska pseudotaktowa	!
.	.	.	.	4c\	Chri-	8e\	Chri-	2r	.
.	.	.	.	.	.	16f\	-ſte	.	.
.	.	.	.	.	.	16g\	.	.	.
!LO:TX:t=P:problem:kreska pseudotaktowa	!	!LO:TX:t=P:problem:kreska pseudotaktowa	!	!	!	!	!	!	!
4F\	.	4F\	Chri-	8A\L	-ſte	8a\L	.	.	.
!	!	!	!	!	!	!LO:TX:t=P:problem:kreska pseudotaktowa	!	!	!
.	.	.	.	16B\L	.	8g\J	.	.	.
.	.	.	.	16c\JJ	.	.	.	.	.
!LO:LB:g=original	!	!	!	!LO:TX:t=P:problem:kreska pseudotaktowa	!	!LO:LB:g=original	!	!	!
8D\L	-lei-	8D\L	-ſte	8d\L	.	4f\	e-	2r	.
16E\L	.	16E\L	.	8c\J	.	.	.	.	.
16F\JJ	.	16F\JJ	.	.	.	.	.	.	.
8G\L	.	8G\L	.	4B\	e-	8e\L	.	.	.
8F\J	.	8F\J	.	.	.	8d\J	.	.	.
*	*	*	*	*	*	*	*	*	*ij
!	!	!	!	!	!	!LO:TX:t=P:problem:kreska pseudotaktowa	!	!LO:TX:t=P:problem:kreska pseudotaktowa	!
4E\	.	4E\	e-	8A\L	.	2g\	.	2ee\	Ky-
.	.	.	.	8G\J	.	.	.	.	.
!	!	!	!	!LO:TX:t=P:problem:nuta przekreślona	!	!	!	!	!
8D\L	.	8D\L	.	2c\	.	.	.	.	.
!LO:TX:t=P:problem:kreska pseudotaktowa	!	!LO:TX:t=P:problem:kreska pseudotaktowa	!	!	!	!	!	!	!
8C\J	.	8C\J	.	.	.	.	.	.	.
=7-	=7-	=7-	=7-	=7-	=7-	=7-	=7-	=7-	=7-
2.G\	.	2.G\	-ley-	.	.	2.g\	-ley-	1dd\	-ri-
.	.	.	.	8B\L	.	.	.	.	.
.	.	.	.	8A\J	.	.	.	.	.
.	.	.	.	4.B\	-ley-	.	.	.	.
!LO:TX:t=P:problem:kreska pseudotaktowa	!	!LO:TX:t=P:problem:kreska pseudotaktowa	!	!	!	!LO:TX:t=P:problem:kreska pseudotaktowa	!	!	!
4GG/	.	4GG/	-ſon	.	.	4g\	.	.	.
!	!	!	!	!LO:TX:t=P:problem:kreska pseudotaktowa	!	!	!	!	!
.	.	.	.	8A\	.	.	.	.	.
2C,</	-son	2C/	Ky-	2.G/	-ſon	4e\	-ſon	2cc\	-e
.	.	.	.	.	.	4e\	Chri-	.	.
!LO:TX:t=P:problem:kreska pseudotaktowa	!	!LO:TX:t=P:problem:kreska pseudotaktowa	!	!	!	!	!	!LO:TX:t=P:problem:kreska pseudotaktowa	!
2GG/	Ky-	2GG/	-ri-	.	.	8d\L	-ſte	2b\	e-
.	.	.	.	.	.	16e\L	.	.	.
.	.	.	.	.	.	16f\JJ	.	.	.
!	!	!	!	!LO:TX:t=P:problem:kreska pseudotaktowa	!	!	!	!	!
.	.	.	.	4G/	Chri-	8g\L	e-	.	.
!	!	!	!	!	!	!LO:TX:t=P:problem:kreska pseudotaktowa	!	!	!
.	.	.	.	.	.	8f\J	.	.	.
=8-	=8-	=8-	=8-	=8-	=8-	=8-	=8-	=8-	=8-
2AA/	-ri-	2AA/	.	4c\	-ſte	4.e\	-ley-	2a\	-ley-
.	.	.	.	4c\	e-	.	.	.	.
.	.	.	.	.	.	8e\	.	.	.
!LO:TX:t=P:problem:kreska pseudotaktowa	!	!LO:TX:t=P:problem:kreska pseudotaktowa	!	!	!	!	!	!LO:TX:t=P:problem:kreska pseudotaktowa	!
!	!	!LO:LB:g=original	!	!	!	!	!	!	!
2BB/	-e	2BB/	-e	8B\L	.	4d\	-ſon	2g/	-ſon
*	*	*	*	*	*	*	*	*	*Xij
.	.	.	.	16c\L	.	.	.	.	.
.	.	.	.	16d\JJ	.	.	.	.	.
!	!	!	!	!	!	!LO:TX:t=P:problem:kreska pseudotaktowa	!	!	!
.	.	.	.	8e\L	.	4g\	Chri-	.	.
!	!	!	!	!LO:TX:t=P:problem:kreska pseudotaktowa	!	!	!	!	!
.	.	.	.	8d\J	.	.	.	.	.
2C/	.	2C/	e-	4c\	-ley-	8e\L	-ſte	4r	.
.	.	.	.	.	.	16f\L	.	.	.
.	.	.	.	.	.	16g\J	.	.	.
.	.	.	.	4e\	.	8a\	.	4cc\	Chri-
.	.	.	.	.	.	8g\J	.	.	.
!LO:TX:t=P:problem:kreska pseudotaktowa	!	!	!	!	!	!	!	!	!
2D/	.	2D/	-ley-	4d\	-ſon	4.f\	e-	8a\L	-ſte
.	.	.	.	.	.	.	.	16b\L	.
.	.	.	.	.	.	.	.	16cc\J	.
!	!	!	!	!LO:TX:t=P:problem:kreska pseudotaktowa	!	!	!	!	!
.	.	.	.	4A\	.	.	.	8dd\	.
!	!	!	!	!	!	!LO:TX:t=P:problem:kreska pseudotaktowa	!	!LO:TX:t=P:problem:kreska pseudotaktowa	!
.	.	.	.	.	.	8f\	-ley-	8cc\J	.
=9-	=9-	=9-	=9-	=9-	=9-	=9-	=9-	=9-	=9-
2E\	.	2E\	-son	4e\	Ky-	4g\	-ſon	4b\	e-
.	.	.	.	4B\	ri-	4.e\	Ky-	4g/	-ley-
!LO:TX:t=P:problem:kreska pseudotaktowa	!	!LO:TX:t=P:problem:kreska pseudotaktowa	!	!	!	!	!	!	!
2C/	e-	2C/	e-	4c\	-e	.	.	4g/	-ſon
.	.	.	.	.	.	8e\	-ri-	.	.
!	!	!	!	!LO:TX:t=P:problem:kreska pseudotaktowa	!	!LO:TX:t=P:problem:kreska pseudotaktowa	!	!	!
.	.	.	.	4G/	e-	4e\	-e	2cc\	Ky-
2.G\	-le-	2.GG/	-ley-	2.G/	-ley-	2.d\	e-	.	.
.	.	.	.	.	.	.	.	8b\L	-ri-
.	.	.	.	.	.	.	.	8a\J	-e
.	.	.	.	.	.	.	.	4.b\	e-
!LO:TX:t=P:problem:kreska pseudotaktowa	!	!	!	!	!	!	!	!	!
4GG/	-i-	4GG/	.	4G/	.	4d\	-ley-	.	.
!	!	!	!	!	!	!	!	!LO:TX:t=P:problem:kreska pseudotaktowa	!
.	.	.	.	.	.	.	.	8b\	-ley-
=10-	=10-	=10-	=10-	=10-	=10-	=10-	=10-	=10-	=10-
0C/;	-son.	0C/	-son	0G/	-ſon	0e\	-ſon	0cc\	-ſon.
==	==	==	==	==	==	==	==	==	==
*-	*-	*-	*-	*-	*-	*-	*-	*-	*-
!!!system-decoration: [(s1,s2,s3,s4)]s5
!!!ENC: Krzysztof Stępień
!!!END: 2021-07-02
!!!RDF**kern: < = below
!!!EED: Andrzej Borzym
!!!EST: 2021-07-26
